X:1
T:Title
%%score { 1 | ( 2 3 ) }
L:1/8
M:4/4
K:G
V:1 treble nm="Grand Piano"
V:2 bass 
V:3 bass 
V:1
 z4 z2[Q:1/4=100] G>A | BB B>A G2 E2 | GG [B,^DG]>[A,DF][K:bass] [G,E]4 | %3
 [G,B,D]2 [G,B,D]>[D,A,C] [D,G,B,][K:treble][G,B,D][G,DG]A | B4 A2 GA | BB B>A G2 E2 | %6
 GG [B,^DG]>[A,DF][K:bass] [G,E]4 | [G,B,D]2 [G,B,D]>[D,A,C] [D,G,B,][K:treble][G,B,D][G,DG][DB] | %8
[M:7/8] [CA]- [CA]3 [B,G]2 z |[M:1/8] d |[M:4/4] d2 B>c de z d | d2 B>c d4 |[M:2/4] d2 B>c | %13
 d .e3 |[M:4/4] d2 B>G [DFA]2 [DG][CDA] | [B,DB][DB] [^DB]>[DA] G2 E2 | %16
 GG [B,^DG]>[A,DF][K:bass] [G,E]4 | [G,B,D]2 [G,B,D]>[D,A,C] [D,G,B,][K:treble][G,B,D][G,DG][DB] | %18
[M:15/8] [CA]3- [CA] [B,G]2 z3 z6 |] %19
V:2
 z4 z2 [G,B,D]>[G,A,D] | [G,D][G,D] [F,B,^D]>[F,B,D] [E,B,E]2 [E,G,B,]2 | %2
 [E,B,E][E,B,E] B,,>B,, C,4 | G,,2 G,,>G,, G,,G,,B,,[D,F,D] | [G,D]4 [D,F,C]2 [G,B,][G,C] | %5
 [G,D][G,D] [F,B,^D]>[F,B,D] [E,B,E]2 [E,G,B,]2 | [E,B,E][E,B,E] B,,>B,, z2 C2 | %7
 G,,2 G,,>G,, G,,G,,B,,[G,,G,] |[M:7/8] [D,F,]- [D,F,]3 [G,,G,]2 z |[M:1/8][K:treble] [G,B,D] | %10
[M:4/4] [G,B,G]2 [G,D]>[G,A,D] [G,B,G][G,CG] z [G,B,G] | [G,B,G]2 [G,D]>[G,A,D] [G,B,G]4 | %12
[M:2/4] [G,B,G]2 [G,D]>[G,A,D] | [G,B,G] .[G,CG]3 | %14
[M:4/4] [G,B,G]2[K:bass] [G,B,D]>[E,^CE] D,2 B,,A,, | %15
 G,,[G,,G,] [B,,F,]>[B,,F,] [E,G,E]2 [E,G,B,]2 | [E,B,E][E,B,E] B,,>B,, z2 C2 | %17
 G,,2 G,,>G,, G,,G,,B,,[G,,G,] |[M:15/8] [D,F,]3- [D,F,] [G,,G,]2 z3 z6 |] %19
V:3
 x8 | x8 | x8 | x8 | x8 | x8 | z4 C,4 | x8 |[M:7/8] x7 |[M:1/8][K:treble] x |[M:4/4] x8 | x8 | %12
[M:2/4] x4 | x4 |[M:4/4] x2[K:bass] x6 | x8 | z4 C,4 | x8 |[M:15/8] x15 |] %19

